X: 231
M: 6/8
L: 1/8
K: G
g2g |!segno!\
g2G ABc | B2A d2d |\
dcB AGA | B2A g2g |\
g2G ABc | B2A d2d |\
dcB AGF | HG3 |]\
[| "1.F."d2d | gfe a2d |
!+!c2A a2a |\
agf efd | ^c2A a2a |\
gBc dcB | eAB cBA |\
dcB ABG | F2D g2g !segno!y|]

